X: 12
T: Glen Of Aherlow, The
C: Sean Ryan
Z: Aberfoyle Whistler
S: https://thesession.org/tunes/496#setting46102
R: reel
M: 4/4
L: 1/8
K: Edor
|:B2AF BFAF|EGFD EDBd|B2AF BFAF|DFAF FEFA|
~B2AF BFAF|EGFD EDBA|B ~E3 DEFA|1 BFAF F ~E3:|2 B2 AF FEBd||
e ~B3 efge|~f3 d Adfd|e ~B3 e2 fe|dBAF BEBd|
ez BB egfe|~f3 d Adfd|ABBd e z fe dBAF BEBd|
e ~B3 efge|~f3 d Adfd|e ~B3 e2 fe|dBAF BEBd|
e z BB egfe|f3 d Adf z|B3 d ez fe|dBAF BEFA||

